X:19
T: Frutt Kuhreihen  Bb (trad.)
T:Dirigenten-Notiz, Edi Gasser. 
C:Unterwalden (CH)
%%partsbox
M:6/8+7/8
%Q:1/4=110
R:Naturjodel
L:1/8
K:Bb
[P:A] "gehobene Stimmung / gross und weit" !f!F |  (!fermata! !>! B3B) (3cde |  (!fermata! !>! f3!breath!f2)d | f e c d B c F  | (!fermata!!>! B3!breath!B2)f | 
c2fc2f | B>cd F2 !mp!"Echo"f | c2fc2f |  (!fermata! !>! B3!breath!B2)!f!F | 
(!fermata! !>! B3B) (3cde | (!fermata! !>! f3!breath!f2)d | f e c d B c F | (!fermata! !>! B3!breath!B2)z || 
M:6/8
[P:B]  !f!f | cFf c2f | BFf B2 "Echo" !mp!f | cFf c2f | (!fermata! !>! B3!breath!B2)!f!F2  | (!fermata! B3B) (3cde | 
(!fermata! f3!breath!f2)d | f e c d B c F | (!fermata! !>!B3!breath!B2)!ff!Fd  | cFf cFf | 
(!fermata! !>!B3!breath!B)!mp! "Echo"Fd  | cFf cFf | (!fermata!B3!breath!B) !ff!z/F/d/F/ |  (!fermata! B3!breath!B) "Echo" !mp!z/F/d/F/ |(!fermata! !>!B3B)z z |]
W: 
W: von A. L. Gassmann 1911 auf der Frutt aufgezeichnet.
W: (aus "Tonpsychologie des Schweizer Volksliedes" )
W: 
W: UJV-Naturjodelsammlung: Code-Nr: 00-20
W:http://www.naturjodler.ch/tradition-2.htm  (with AUDIO) 
W: 
W: see: "Der Frutt- Kuhreihen, Alphorn- Solo"
W:https://www.youtube.com/watch?v=tXwyK3UcFZU
%April 23, 2018

